packages/ui/public/icons/sidebar-logout-icon.svg

<svg
  width="24"
  height="22"
  viewBox="0 0 24 22"
  fill="none"
  xmlns="http://www.w3.org/2000/svg"
>
<path
    d="M13.2698 7.12256C13.5283 7.12256 13.7764 7.02026 13.9595 6.83824C14.1423 6.65599 14.2452 6.40893 14.2452 6.15125V2.91372C14.2452 2.14093 13.9368 1.39994 13.3879 0.853436C12.8393 0.306924 12.0949 0 11.3188 0H2.92649C2.15038 0 1.40597 0.306906 0.857341 0.853436C0.308476 1.39995 0 2.14093 0 2.91372V18.1301C0 18.9029 0.308453 19.6439 0.857341 20.1904C1.40598 20.7369 2.15038 21.0438 2.92649 21.0438H11.3153C12.0914 21.0438 12.8356 20.7369 13.3844 20.1904C13.9333 19.6439 14.2415 18.9029 14.2415 18.1301V15.2162C14.2415 14.8693 14.0555 14.5486 13.7539 14.3752C13.452 14.2015 13.0803 14.2015 12.7784 14.3752C12.4765 14.5486 12.2908 14.8693 12.2908 15.2162V18.1301C12.2908 18.3876 12.1878 18.6346 12.005 18.8169C11.822 18.9989 11.5738 19.1012 11.3153 19.1012H2.92651C2.66773 19.1012 2.4196 18.9989 2.23679 18.8169C2.05376 18.6346 1.95102 18.3876 1.95102 18.1301V2.91372C1.95102 2.65627 2.05376 2.40921 2.23679 2.22696C2.41959 2.04494 2.66772 1.94263 2.92651 1.94263H11.3153C11.5738 1.94263 11.822 2.04493 12.005 2.22696C12.1878 2.4092 12.2908 2.65627 12.2908 2.91372V6.15125C12.2908 6.4096 12.394 6.65711 12.5775 6.83934C12.7612 7.02158 13.0102 7.12344 13.2694 7.12253L13.2698 7.12256Z"
  />
<path
    d="M6.27856 10.6839C6.27856 10.9413 6.38131 11.1884 6.56434 11.3706C6.74737 11.5526 6.99527 11.6552 7.25406 11.6552H20.6536L17.0379 15.2166V15.2163C16.8038 15.4625 16.7156 15.8125 16.8052 16.1396C16.8948 16.4666 17.1492 16.7236 17.4765 16.8173C17.8035 16.9112 18.1562 16.8284 18.4068 16.5989L23.71 11.3768C23.8955 11.1943 24 10.9452 24 10.6855C24 10.4258 23.8955 10.1767 23.71 9.99424L18.4068 4.77864C18.1562 4.54919 17.8035 4.46632 17.4765 4.56004C17.1492 4.65399 16.8947 4.91076 16.8052 5.23778C16.7156 5.56502 16.8038 5.91483 17.0379 6.161L20.6536 9.7224H7.25406C6.99709 9.7224 6.75032 9.82334 6.56776 10.0033C6.38519 10.1835 6.28131 10.4281 6.27859 10.684L6.27856 10.6839Z"
  />
</svg>

<svg width="24" height="22" fill="none" xmlns="http://www.w3.org/2000/svg"><path d="M13.27 7.123a.97.97 0 0 0 .975-.971V2.913c0-.773-.308-1.514-.857-2.06A2.932 2.932 0 0 0 11.318 0H2.927C2.15 0 1.406.307.857.853A2.907 2.907 0 0 0 0 2.913V18.13c0 .773.308 1.514.857 2.06a2.932 2.932 0 0 0 2.07.854h8.388c.776 0 1.52-.307 2.07-.854a2.907 2.907 0 0 0 .857-2.06v-2.914a.97.97 0 0 0-.488-.84.978.978 0 0 0-.976 0 .97.97 0 0 0-.487.84v2.914a.97.97 0 0 1-.976.971H2.927a.97.97 0 0 1-.975-.971V2.914a.97.97 0 0 1 .975-.971h8.388a.97.97 0 0 1 .976.971V6.15a.97.97 0 0 0 .978.972Z"/><path d="M6.279 10.684a.97.97 0 0 0 .285.687c.183.182.431.284.69.284h13.4l-3.616 3.562a.968.968 0 0 0 .439 1.6c.326.094.68.011.93-.218l5.303-5.222a.97.97 0 0 0 0-1.383L18.407 4.78a.979.979 0 0 0-1.602.459.968.968 0 0 0 .233.923l3.616 3.561h-13.4a.971.971 0 0 0-.975.962Z"/></svg>
